assets/icons/action/new_custom74.svg

<?xml version="1.0"?><svg xmlns="http://www.w3.org/2000/svg" width="52" height="52" viewBox="0 0 52 52"><g fill="#fff"><path d="m30.1 44.4h-8.2c-0.9 0-1.6 0.7-1.6 1.6v2.4c0 0.9 0.7 1.6 1.6 1.6h8.2c0.9 0 1.6-0.7 1.6-1.6v-2.4c0-0.9-0.7-1.6-1.6-1.6z m-4.1-42.4c-10 0-18 7.5-18 16.8 0 6 3.4 11.3 8.5 14.2 2 1.1 3.3 3 3.7 5.2 0.2 0.7 0.8 1.3 1.6 1.3h8.5c0.8 0 1.5-0.6 1.6-1.3 0.4-2.2 1.7-4.1 3.7-5.2 5-3 8.3-8.2 8.3-14.2 0.1-9.3-7.9-16.8-17.9-16.8z m-5.6 7.5c-1.6 3-2.5 6.6-2.6 9.5 0 3 0.6 5.8 1.6 8.6 0.3 0.7-0.4 1.4-1.1 1-7.5-3.8-7-17.6 1.1-20.3 0.7-0.1 1.4 0.6 1 1.2z m6.3 19.1c-0.2 0.6-1.2 0.6-1.5 0-1.3-3.1-1.6-6.8-1.7-10.2 0.1-3.4 0.4-7 1.7-10.2 0.2-0.6 1.2-0.6 1.5 0 1.3 3.1 1.6 6.8 1.7 10.2 0 3.4-0.4 7-1.7 10.2z m6.7 0.1c-0.7 0.3-1.4-0.3-1.1-1 1.1-2.9 1.6-6.1 1.7-9.1-0.1-2.6-1-6.1-2.6-9-0.3-0.6 0.3-1.4 1-1.1 8.1 2.6 8.6 16.5 1 20.2z"></path></g></svg>

<svg xmlns="http://www.w3.org/2000/svg" x="0px" y="0px"
	 width="52px" height="52px" viewBox="0 0 52 52" enable-background="new 0 0 52 52" xml:space="preserve">
<g>
	<path fill="#FFFFFF" d="M30.1,44.4h-8.2c-0.9,0-1.6,0.7-1.6,1.6v2.4c0,0.9,0.7,1.6,1.6,1.6h8.2c0.9,0,1.6-0.7,1.6-1.6V46
		C31.7,45.1,31,44.4,30.1,44.4z"/>
	<path fill="#FFFFFF" d="M26,2C16,2,8,9.5,8,18.8c0,6,3.4,11.3,8.5,14.2c2,1.1,3.3,3,3.7,5.2c0.2,0.7,0.8,1.3,1.6,1.3h8.5
		c0.8,0,1.5-0.6,1.6-1.3c0.4-2.2,1.7-4.1,3.7-5.2c5-3,8.3-8.2,8.3-14.2C44,9.5,36,2,26,2z M20.4,9.5c-1.6,3-2.5,6.6-2.6,9.5
		c0,3,0.6,5.8,1.6,8.6c0.3,0.7-0.4,1.4-1.1,1c-7.5-3.8-7-17.6,1.1-20.3C20.1,8.2,20.8,8.9,20.4,9.5z M26.7,28.6
		c-0.2,0.6-1.2,0.6-1.5,0c-1.3-3.1-1.6-6.8-1.7-10.2c0.1-3.4,0.4-7,1.7-10.2c0.2-0.6,1.2-0.6,1.5,0c1.3,3.1,1.6,6.8,1.7,10.2
		C28.4,21.8,28,25.4,26.7,28.6z M33.4,28.7c-0.7,0.3-1.4-0.3-1.1-1c1.1-2.9,1.6-6.1,1.7-9.1c-0.1-2.6-1-6.1-2.6-9
		c-0.3-0.6,0.3-1.4,1-1.1C40.5,11.1,41,25,33.4,28.7z"/>
</g>
</svg>
